X:1
T:Title
%%score { 1 | 2 }
L:1/8
M:4/4
K:G
V:1 treble nm="Grand Piano"
V:2 bass 
V:1
 z4 z2[Q:1/4=100] [B,D]2 | [B,D]3 [B,D] [CE]>[B,D] [B,G]>[B,D] | [DB]6 B2 | c3 B A>G F>G | %4
[M:3/4] A6 |[M:1/4] D2 |[M:4/4] [B,D]3 [B,D] [CE]>[B,D] [DB]>[^DA] | [EG]6 [EG]2 | G3 G F>G B>A | %9
[M:3/4] [B,G]6 |[M:1/4] [Gd]2 |[M:4/4] [Fd]3 [Ac] [GB]>[Ac] [GB]>[FA] | [B,G]6 [DG]2 | %13
 [^CG]3 [CG] [CF]>[CG] [CB]>[CA] |[M:3/4] [DA]6 |[M:1/4] [CD]2 | %16
[M:4/4] [B,D]3 [B,D] [CE]>[B,D] [B,G]>[B,D] | [DB]6 [Gd]2 | [Fd]3 [Ac] [GB]>[Ac] [GB]>[FA] | %19
[M:3/4] [B,G]6 |] %20
V:2
 z4 z2 [G,,G,]2 | [G,,G,]3 [G,,G,] [G,,G,]>[G,,G,] [G,,G,]>[G,,G,] | [G,,A,]6 [G,D]2 | %3
 [D,A,D]3 [D,G,D] [D,F,D]>[D,G,D] [D,A,D]>[D,B,D] |[M:3/4] [D,CD]6 |[M:1/4] [D,A,C]2 | %6
[M:4/4] [G,,G,]3 [G,,G,] [G,,G,]>[G,,G,] [G,,G,]>[B,,F,] | [E,G,]6 [C,C]2 | %8
 [D,B,D]3 [D,B,D] [D,A,D]>[D,B,D] [D,G,D]>[D,F,C] |[M:3/4] [G,,G,]6 |[M:1/4] [G,B,]2 | %11
[M:4/4] [D,A,]3 [D,D] [D,D]>[D,D] [D,D]>[D,C] | [G,,G,]6 [B,,G,]2 | %13
 [A,,A,]3 [A,,A,] [A,,A,]>[A,,A,] [A,,G,]>[A,,G,] |[M:3/4] [D,F,]6 |[M:1/4] [D,A,]2 | %16
[M:4/4] [G,,G,]3 [G,,G,] [G,,G,]>[G,,G,] [G,,G,]>[G,,G,] | [G,,G,]6 [B,,G,]2 | %18
 [D,A,]3 [D,D] [D,D]>[D,D] [D,D]>[D,C] |[M:3/4] [G,,G,]6 |] %20

